svg/300/sharp/frame_person-fill.svg

<svg xmlns="http://www.w3.org/2000/svg" width="48" height="48" viewBox="0 -960 960 960"><path d="M100.001-100.001v-214.307h45.384v168.923h168.923v45.384H100.001Zm0-545.691v-214.307h214.307v45.384H145.385v168.923h-45.384Zm545.691 545.691v-45.384h168.923v-168.923h45.384v214.307H645.692Zm168.923-545.691v-168.923H645.692v-45.384h214.307v214.307h-45.384ZM479.954-482.308q-46.338 0-78.146-31.807-31.807-31.808-31.807-78.146 0-45.43 31.807-77.738 31.808-32.307 78.146-32.307 45.43 0 77.738 32.307 32.307 32.308 32.307 77.738 0 46.338-32.307 78.146-32.308 31.807-77.738 31.807ZM250.001-257.694v-65.999q0-23.003 14.437-40.76 14.438-17.758 35.562-29.085 41.615-22.385 86.891-33.269 45.276-10.885 93-10.885T573-426.807q45.385 10.884 87 33.269 21.124 11.327 35.562 29.085 14.437 17.757 14.437 40.76v65.999H250.001Z"/></svg>

<svg xmlns="http://www.w3.org/2000/svg" width="48" height="48" viewBox="0 -960 960 960"><path d="M100-100v-214.31h45.39v168.92h168.92V-100H100Zm0-545.69V-860h214.31v45.39H145.39v168.92H100ZM645.69-100v-45.39h168.92v-168.92H860V-100H645.69Zm168.92-545.69v-168.92H645.69V-860H860v214.31h-45.39ZM479.95-482.31q-46.33 0-78.14-31.81Q370-545.92 370-592.26q0-45.43 31.81-77.74 31.81-32.31 78.14-32.31 45.43 0 77.74 32.31Q590-637.69 590-592.26q0 46.34-32.31 78.14-32.31 31.81-77.74 31.81ZM250-257.69v-66q0-23.01 14.44-40.76 14.44-17.76 35.56-29.09 41.62-22.38 86.89-33.27 45.28-10.88 93-10.88 47.73 0 93.11 10.88 45.38 10.89 87 33.27 21.12 11.33 35.56 29.09Q710-346.7 710-323.69v66H250Z"/></svg>
